svgs/sharp-solid/file-circle-minus.svg

<svg xmlns="http://www.w3.org/2000/svg" viewBox="0 0 576 512"><!--! Font Awesome Pro 6.6.0 by @fontawesome - https://fontawesome.com License - https://fontawesome.com/license (Commercial License) Copyright 2024 Fonticons, Inc. --><path d="M0 0L224 0l0 160 160 0 0 38.6C310.1 219.5 256 287.4 256 368c0 59.5 29.6 112.1 74.8 144L0 512 0 0zM384 128l-128 0L256 0 384 128zM288 368a144 144 0 1 1 288 0 144 144 0 1 1 -288 0zm224 16l0-32-16 0-128 0-16 0 0 32 16 0 128 0 16 0z"/></svg>

<svg xmlns="http://www.w3.org/2000/svg" viewBox="0 0 576 512"><!--! Font Awesome Pro 6.4.2 by @fontawesome - https://fontawesome.com License - https://fontawesome.com/license (Commercial License) Copyright 2023 Fonticons, Inc. --><path d="M0 0H224V160H384v38.6C310.1 219.5 256 287.4 256 368c0 59.5 29.6 112.1 74.8 144H0V0zM384 128H256V0L384 128zM288 368a144 144 0 1 1 288 0 144 144 0 1 1 -288 0zm224 16V352H496 368 352v32h16H496h16z"/></svg>
